icons/upload.svg

<svg xmlns="http://www.w3.org/2000/svg" viewBox="0 0 16 16">
  <defs id="defs3051">
    <style type="text/css" id="current-color-scheme">
      .ColorScheme-Text {
        color:#eff0f1;
      }
      </style>
  </defs>
 <path style="fill:currentColor;fill-opacity:1;stroke:none" 
     d="M 2 2 L 2 13.28125 L 2 14 L 14 14 L 14 13 L 14 12 L 14 11 L 14 10 L 14 7 L 13 7 L 13 9 L 11 7 L 7.65625 10.34375 L 6.3125 9 L 6.28125 9 L 3 12.28125 L 3 3 L 9 3 L 9 2 L 2 2 z M 11 7 L 12 7 L 12 3.9140625 L 14 5.9140625 L 14 4.5 L 12.207031 2.7070312 L 11.5 2 L 10.792969 2.7070312 L 9 4.5 L 9 5.9140625 L 11 3.9140625 L 11 7 z M 6 4 C 4.8954305 4 4 4.8954305 4 6 C 4 7.1045695 4.8954305 8 6 8 C 7.1045695 8 8 7.1045695 8 6 C 8 4.8954305 7.1045695 4 6 4 z "
     class="ColorScheme-Text"
     />
</svg>

<svg version="1.1" viewBox="0 0 16 16" xmlns="http://www.w3.org/2000/svg">
 <defs>
  <style id="current-color-scheme" type="text/css">.ColorScheme-Text {
        color:#eff0f1;
      }</style>
 </defs>
 <path class="ColorScheme-Text" d="m2 2v11.28 0.7188h12v-1-1-1-1-3h-1v2l-2-2-3.344 3.344-1.344-1.344h-0.03125l-3.281 3.281v-9.281h6v-1h-7zm9 5h1v-3.086l2 2v-1.414l-2.5-2.5-2.5 2.5v1.414l2-2v3.086zm-5-3c-1.105 0-2 0.8954-2 2s0.8954 2 2 2 2-0.8954 2-2-0.8954-2-2-2z" fill="#f0f0f0"/>
</svg>
